X:1
T:Barbara Ellen
M:3/4
L:1/8
K:C
 G| Gc d3 e| dB A3 G/2G/2| Ac d3 e|d-c A2 z A| cdc AG E| C D/2D/2 EG A/2A/2 E|\
 D2 D2 z||
